kora-light/actions/scalable/trim-margins.svg

<svg xmlns="http://www.w3.org/2000/svg" style="fill-rule:evenodd;clip-rule:evenodd;stroke-linejoin:round;stroke-miterlimit:2" width="100%" height="100%" version="1.1" viewBox="0 0 16 16" xml:space="preserve">
 <defs>
  <style id="current-color-scheme" type="text/css">
   .ColorScheme-Text { color:#444444; } .ColorScheme-Highlight { color:#4285f4; } .ColorScheme-NeutralText { color:#ff9800; } .ColorScheme-PositiveText { color:#4caf50; } .ColorScheme-NegativeText { color:#f44336; }
  </style>
 </defs>
 <path style="fill:currentColor;" class="ColorScheme-Text" d="M2,0l0,2l-2,0l0,1.103l2,0l0,12.897l1.197,0l-0,-12.897l11.662,0l0,12.897l1.141,0l0,-14l-12.803,0l-0,-2l-1.197,0Z"/>
 <path style="fill:currentColor;fill-opacity:0.3" class="ColorScheme-Text" d="M5,15l0,1l8,0l0,-1l-8,0Zm0,-2l0,1l8,0l0,-1l-8,0Zm0,-2l0,1l8,0l0,-1l-8,0Zm0,-2l0,1l8,0l0,-1l-8,0Zm0,-2l0,1l8,0l0,-1l-8,0Zm0,-2l0,1l8,0l0,-1l-8,0Z"/>
</svg>

<svg xmlns="http://www.w3.org/2000/svg" width="16" height="16" version="1.1">
 <defs>
  <style id="current-color-scheme" type="text/css">
   .ColorScheme-Text { color:#444444; } .ColorScheme-Highlight { color:#4285f4; }
  </style>
 </defs>
 <path style="fill:currentColor" class="ColorScheme-Text" d="M 2 0 L 2 2 L 0 2 L 0 4 L 2 4 L 2 16 L 4 16 L 4 4 L 14 4 L 14 16 L 16 16 L 16 4 L 16 2 L 14 2 L 4 2 L 4 0 L 2 0 z M 5 5 L 5 6 L 13 6 L 13 5 L 5 5 z M 5 7 L 5 8 L 13 8 L 13 7 L 5 7 z M 5 9 L 5 10 L 13 10 L 13 9 L 5 9 z M 5 11 L 5 12 L 13 12 L 13 11 L 5 11 z M 5 13 L 5 14 L 13 14 L 13 13 L 5 13 z M 5 15 L 5 16 L 13 16 L 13 15 L 5 15 z"/>
</svg>
